src/scalable/places-circle/brown-folder-download.svg

<svg width="64" height="64" version="1.1" viewBox="0 0 16.933 16.933" xmlns="http://www.w3.org/2000/svg" xmlns:xlink="http://www.w3.org/1999/xlink">
 <defs>
  <linearGradient id="b">
   <stop offset="0"/>
   <stop stop-opacity="0" offset="1"/>
  </linearGradient>
  <linearGradient id="a" x1="43.231" x2="48.179" y1="46.109" y2="51.287" gradientTransform="scale(.26458)" gradientUnits="userSpaceOnUse" xlink:href="#b"/>
  <linearGradient id="c" x1="42" x2="44" y1="51" y2="55" gradientUnits="userSpaceOnUse" xlink:href="#b"/>
 </defs>
 <circle cx="8.4665" cy="8.4665" r="7.4082" fill="#63463b" style="paint-order:stroke fill markers"/>
 <path transform="scale(.26458)" d="m16.17 14a24 24 0 0 0-8.1699 18 24 24 0 0 0 24 24 24 24 0 0 0 24-24 24 24 0 0 0-8.1582-18h-31.672z" fill="#fff" style="paint-order:stroke fill markers"/>
 <path transform="scale(.26458)" d="m30 16c-1.3237 0-2.4299 1.0499-3 2l-1.1992 2h-19.061c-1.7922 3.7472-2.7282 7.8463-2.7402 12-6e-7 15.464 12.536 28 28 28 15.464 1e-6 28-12.536 28-28-0.01011-3.7983-0.79291-7.5548-2.3008-11.041-0.77563-1.7345-1.7759-3.5334-2.7617-4.959z" fill="#795548" style="paint-order:stroke fill markers"/>
 <path transform="scale(.26458)" d="m32 4a28 28 0 0 0-18.467 7h36.951a28 28 0 0 0-18.484-7z" opacity=".15" style="paint-order:stroke fill markers"/>
 <path transform="scale(.26458)" d="m57.312 43.891-27.693 15.99a28 28 0 0 0 2.3809 0.11914 28 28 0 0 0 25.312-16.109z" fill="url(#c)" opacity=".1" style="paint-order:stroke fill markers"/>
 <path transform="scale(.26458)" d="m31.004 29.973c-0.55488 0-1.002 0.44707-1.002 1.002v7.9922h-6.002l8.002 8.002 7.998-8.002h-5.998v-7.9922c0-0.55488-0.44707-1.002-1.002-1.002h-1.9961z" fill="#fff" stroke-width="3.7796" style="paint-order:stroke markers fill"/>
</svg>

<svg width="64" height="64" viewBox="0 0 16.933 16.933" xmlns="http://www.w3.org/2000/svg" xmlns:xlink="http://www.w3.org/1999/xlink"><defs><linearGradient id="a"><stop offset="0"/><stop stop-opacity="0" offset="1"/></linearGradient><linearGradient id="b" x1="42" x2="44" y1="51" y2="55" gradientUnits="userSpaceOnUse" xlink:href="#a"/></defs><circle cx="8.466" cy="8.466" r="7.408" fill="#63463b" style="paint-order:stroke fill markers"/><path transform="scale(.26458)" d="M16.17 14A24 24 0 0 0 8 32a24 24 0 0 0 24 24 24 24 0 0 0 24-24 24 24 0 0 0-8.158-18H16.17z" fill="#fff" style="paint-order:stroke fill markers"/><path transform="scale(.26458)" d="M30 16c-1.324 0-2.43 1.05-3 2l-1.2 2H6.74A28 28 0 0 0 4 32c0 15.464 12.536 28 28 28s28-12.536 28-28a28 28 0 0 0-2.301-11.041c-.776-1.734-1.776-3.533-2.762-4.959z" fill="#795548" style="paint-order:stroke fill markers"/><path transform="scale(.26458)" d="M32 4a28 28 0 0 0-18.467 7h36.951A28 28 0 0 0 32 4z" opacity=".15" style="paint-order:stroke fill markers"/><path transform="scale(.26458)" d="m57.312 43.891-27.693 15.99a28 28 0 0 0 2.38.12 28 28 0 0 0 25.313-16.11z" fill="url(#b)" opacity=".1" style="paint-order:stroke fill markers"/><path transform="scale(.26458)" d="M31.004 29.973a1 1 0 0 0-1.002 1.002v7.992H24l8.002 8.002L40 38.967h-5.998v-7.992A1 1 0 0 0 33 29.973h-1.996z" fill="#fff" style="paint-order:stroke markers fill"/></svg>
